app/dist/common/images/ftac-zeus-acquisition.svg

<svg height="18" viewBox="0 0 18 18" width="18" xmlns="http://www.w3.org/2000/svg"><path d="m0 0h18v18h-18z" fill="#f0f3fa"/><path d="m5 5h8v8h-8zm-1 9v-10h10v10zm6-8h-4v5h1v-2h2v3h1v-3h2v-1h-5v-1h3z" fill="#015294" fill-rule="evenodd"/></svg>

<!-- by TradingView --><svg xmlns="http://www.w3.org/2000/svg" width="18" height="18" viewBox="0 0 18 18"><path fill="#F0F3FA" d="M0 0h18v18H0z"/><path fill-rule="evenodd" d="M5 5h8v8H5V5zm-1 9V4h10v10H4zm6-8H6v5h1V9h2v3h1V9h2V8H7V7h3V6z" fill="#015294"/></svg>
